X:1
T:The False Knight Upon the Road
M:3/4
L:1/8
K:C
 c| d2 cc
M:3/4
| d3- cA G| G4 z D| G3 A/2B/2 A/2A/2 G| G^F G2 cc| d3-c-A-G| F6| G3A/2-B/2 AG|\
 G^F G2 cc| d3- cA G| G3 c
M:4/4
| d2 gg f2 fd| c3/2 d/2 cA/2-G/2 F4|
M:3/4
 G3A/2-B/2 AG| G^F G2 cc| d3- cA G| G4||
